source/images/logo-desktop.svg

<svg width="170.000000" height="36.000000" viewBox="0 0 170 36" fill="none" xmlns="http://www.w3.org/2000/svg" xmlns:xlink="http://www.w3.org/1999/xlink">
	<desc>
			Created with Pixso.
	</desc>
	<defs/>
	<path d="M142.938 17.2402L147.139 17.2402L147.139 24.2012Q145.697 25.2324 143.822 25.7832Q141.953 26.334 140.078 26.334Q137.441 26.334 135.326 25.2207Q133.217 24.1016 132.016 22.1094Q130.814 20.1172 130.814 17.5977Q130.814 15.0781 132.016 13.0859Q133.217 11.0938 135.35 9.98047Q137.488 8.86133 140.178 8.86133Q142.527 8.86133 144.396 9.6582Q146.271 10.4492 147.52 11.9375L144.496 14.6738Q142.791 12.7988 140.418 12.7988Q138.256 12.7988 136.932 14.1113Q135.613 15.418 135.613 17.5977Q135.613 18.9922 136.211 20.0879Q136.814 21.1777 137.893 21.793Q138.977 22.4023 140.365 22.4023Q141.736 22.4023 142.938 21.8457L142.938 17.2402ZM159.114 26.334Q156.448 26.334 154.321 25.209Q152.2 24.0781 150.987 22.0859Q149.774 20.0938 149.774 17.5977Q149.774 15.1016 150.987 13.1094Q152.2 11.1172 154.321 9.99219Q156.448 8.86133 159.114 8.86133Q161.774 8.86133 163.896 9.99219Q166.022 11.1172 167.235 13.1094Q168.448 15.1016 168.448 17.5977Q168.448 20.0938 167.235 22.0859Q166.022 24.0781 163.896 25.209Q161.774 26.334 159.114 26.334ZM159.114 22.4023Q160.386 22.4023 161.417 21.8047Q162.448 21.2012 163.046 20.1113Q163.649 19.0156 163.649 17.5977Q163.649 16.1855 163.046 15.0957Q162.448 14 161.417 13.4023Q160.386 12.7988 159.114 12.7988Q157.843 12.7988 156.806 13.4023Q155.774 14 155.171 15.0957Q154.573 16.1855 154.573 17.5977Q154.573 19.0156 155.171 20.1113Q155.774 21.2012 156.806 21.8047Q157.843 22.4023 159.114 22.4023Z" fill="#333333" fill-opacity="1.000000" fill-rule="evenodd"/>
	<path d="M124 18C124 20.8738 123.401 23.5901 122.337 26L109 26C111.463 22.228 114 17.6606 114 13C114 7.00244 109.938 1.95337 104.416 0.453369C105.568 0.156738 106.768 0 108 0C116.836 0 124 8.05884 124 18ZM110 13C110 8.02954 105.971 4 101 4C94.3491 4 92 12.5071 92 18C92 27.9412 99.1636 36 108 36C112.739 36 116.996 33.6826 119.926 30L101 30C101.352 29.5515 101.72 29.0891 102.099 28.6143C105.616 24.2012 110 18.6997 110 13Z" fill="#7859CF" fill-opacity="1.000000" fill-rule="evenodd"/>
	<path d="M2.64964 9.20117L10.5891 9.20117Q13.3547 9.20117 15.4875 10.2324Q17.6262 11.2637 18.7981 13.1621Q19.9758 15.0547 19.9758 17.5977Q19.9758 20.1465 18.7981 22.0449Q17.6262 23.9375 15.4875 24.9688Q13.3547 26 10.5891 26L2.64964 26L2.64964 9.20117ZM10.4016 22.209Q12.5578 22.209 13.8645 20.9844Q15.177 19.7598 15.177 17.5977Q15.177 15.4414 13.8645 14.2168Q12.5578 12.9922 10.4016 12.9922L7.4016 12.9922L7.4016 22.209L10.4016 22.209ZM30.2954 21.5352L27.7056 21.5352L27.7056 26L22.9536 26L22.9536 9.20117L30.6294 9.20117Q32.9146 9.20117 34.5904 9.95703Q36.272 10.7129 37.1802 12.1191Q38.0943 13.5195 38.0943 15.418Q38.0943 17.2402 37.2388 18.5996Q36.3892 19.9531 34.8072 20.7207L38.4341 26L33.3423 26L30.2954 21.5352ZM33.2954 15.418Q33.2954 14.2402 32.5513 13.5957Q31.8072 12.9453 30.3423 12.9453L27.7056 12.9453L27.7056 17.8613L30.3423 17.8613Q31.8072 17.8613 32.5513 17.2285Q33.2954 16.5898 33.2954 15.418ZM41.1936 9.20117L45.9456 9.20117L45.9456 26L41.1936 26L41.1936 9.20117ZM65.794 9.20117L65.794 26L61.88 26L54.462 17.0469L54.462 26L49.8096 26L49.8096 9.20117L53.7178 9.20117L61.1358 18.1543L61.1358 9.20117L65.794 9.20117ZM76.1141 19.9062L74.3387 21.7988L74.3387 26L69.6336 26L69.6336 9.20117L74.3387 9.20117L74.3387 16.1855L80.8426 9.20117L86.0692 9.20117L79.2079 16.6426L86.4325 26L80.9129 26L76.1141 19.9062Z" fill="#333333" fill-opacity="1.000000" fill-rule="evenodd"/>
</svg>

<svg viewBox="0 0 170 36" fill="none" xmlns="http://www.w3.org/2000/svg"><path d="M142.94 17.24h4.2v6.96q-1.44 1.03-3.32 1.58-1.87.55-3.74.55-2.64 0-4.75-1.1-2.11-1.13-3.31-3.12-1.2-2-1.2-4.51 0-2.52 1.2-4.51 1.2-2 3.33-3.11 2.14-1.12 4.83-1.12 2.35 0 4.22.8 1.87.79 3.12 2.28l-3.02 2.73q-1.7-1.87-4.08-1.87-2.16 0-3.49 1.31-1.32 1.3-1.32 3.49 0 1.4.6 2.49.6 1.09 1.68 1.7 1.09.61 2.48.61 1.37 0 2.57-.55v-4.61Zm16.17 9.1q-2.66 0-4.79-1.13-2.12-1.13-3.33-3.12-1.22-2-1.22-4.5 0-2.49 1.22-4.48 1.21-2 3.33-3.12 2.13-1.13 4.8-1.13 2.65 0 4.78 1.13 2.12 1.13 3.34 3.12 1.2 2 1.2 4.49 0 2.5-1.2 4.49-1.22 1.99-3.34 3.12-2.13 1.12-4.79 1.12Zm0-3.94q1.28 0 2.3-.6 1.04-.6 1.64-1.69.6-1.1.6-2.51 0-1.41-.6-2.5-.6-1.1-1.63-1.7-1.03-.6-2.3-.6-1.28 0-2.31.6-1.04.6-1.64 1.7-.6 1.09-.6 2.5 0 1.42.6 2.51.6 1.1 1.64 1.7 1.03.6 2.3.6Z" fill="#333" fill-rule="evenodd"/><path d="M124 18c0 2.87-.6 5.59-1.66 8h-13.34c2.46-3.77 5-8.34 5-13a13 13 0 0 0-9.58-12.55c1.15-.3 2.35-.45 3.58-.45 8.84 0 16 8.06 16 18Zm-14-5a9 9 0 0 0-9-9c-6.65 0-9 8.5-9 14 0 9.94 7.16 18 16 18 4.74 0 9-2.32 11.93-6h-18.93l1.1-1.39c3.52-4.4 7.9-9.91 7.9-15.61Z" fill="#7859CF" fill-rule="evenodd"/><path d="M2.65 9.2h7.94q2.76 0 4.9 1.03 2.14 1.03 3.3 2.93 1.19 1.9 1.19 4.44 0 2.55-1.18 4.44-1.17 1.9-3.31 2.93-2.14 1.03-4.9 1.03h-7.94v-16.8Zm7.75 13q2.16 0 3.46-1.22 1.32-1.22 1.32-3.38t-1.32-3.38q-1.3-1.23-3.46-1.23h-3v9.22h3Zm19.9-.66h-2.6v4.46h-4.75v-16.8h7.68q2.28 0 3.96.76 1.68.75 2.59 2.16.91 1.4.91 3.3 0 1.82-.85 3.18-.85 1.35-2.43 2.12l3.62 5.28h-5.09l-3.04-4.46Zm3-6.12q0-1.18-.75-1.82-.74-.65-2.2-.65h-2.64v4.91h2.63q1.47 0 2.21-.63.75-.64.75-1.81Zm7.9-6.22h4.75v16.8h-4.76v-16.8Zm24.6 0v16.8h-3.92l-7.42-8.95v8.95h-4.65v-16.8h3.9l7.43 8.95v-8.95h4.65Zm10.31 10.7-1.77 1.9v4.2h-4.7v-16.8h4.7v6.99l6.5-6.99h5.23l-6.86 7.44 7.22 9.36h-5.52l-4.8-6.1Z" fill="#333" fill-rule="evenodd"/></svg>
